X:1
T:Grenada, 10.9.10.9 D
T:Grenada, 10.9.10.9 D
T:George Harrison Cook, 1899
T:Public Domain Courtesy of the Cyber Hymnal™
C:George Harrison Cook, 1899
Z:Public Domain
Z:Courtesy of the Cyber Hymnal™
%%score ( 1 2 ) ( 3 4 )
L:1/8
Q:1/4=110
M:9/8
K:G
V:1 treble 
V:2 treble 
V:3 bass 
V:4 bass 
V:1
 DEF | G3 [DG]3 [GB][DA][DG] | [FA]3 [Fd]3 [Gd][Ge][Gd] | [GB]3 [DG]3 [GB][GA]G | %4
 [FA]3- [FA]2 z DEF | G3 [DG]3 [GB][DA][DG] | [FA]3 [Fd]3 [Gd][Ge][Gd] | [GB]3 [DG]3 [FA][GB][FA] | %8
 [DG]3- [DG]2 z | [Gd][Gd][Gd] | [Ge]3 [Ec]3 [Gc][Gd][Ge] | [Gd]3 [GB]3 [Gd][Gd][Gd] | %12
 [Gd]3 [GB]3 [GB][GA]G | (!fermata!A3 !fermata!d3) (DE)F | [DG]3 [DG]3 [GB][DA][DG] | %15
 [FA]3 [Fd]3 [Gd][Ge][Gd] | [GB]3 [DG]3 [FA][GB][FA] | [DG]6 |] %18
V:2
 DEF | G3 x6 | x9 | x8 G | x6 DEF | G3 x6 | x9 | x9 | x6 | x3 | x9 | x9 | x8 G | F6 DE x | x9 | %15
 x9 | x9 | x6 |] %18
V:3
 D,E,F, | G,3 [G,B,]3 [G,D][G,C][G,B,] | [D,D]3 [D,A,]3 [G,B,][G,C][G,B,] | %3
 [G,D]3 [G,B,]3 [E,^C][E,C][E,C] | [D,D]3- [D,D]2 z D,E,F, | G,3 [G,B,]3 [G,D][G,C][G,B,] | %6
 [D,D]3 [D,A,]3 [G,B,][G,C][G,B,] | [G,D]3 [G,B,]3 [D,C][D,D][D,C] | [G,B,]3- [G,B,]2 z | %9
 [G,B,][G,B,][G,B,] | [C,C]3 [C,G,]3 [E,C][D,B,][C,C] | [G,B,]3 [G,D]3 [G,B,][G,B,][G,B,] | %12
 [G,B,]3 [G,D]3 [E,^C][E,C][E,C] | (D3 A,3) D,E,F, | G,3 [G,B,]3 [G,D][G,C][G,B,] | %15
 [D,D]3 [D,A,]3 [G,B,][G,C][G,B,] | [G,D]3 [G,B,]3 [D,C][D,D][D,C] | [G,,G,B,]6 |] %18
V:4
 D,E,F, | G,3 x6 | x9 | x9 | x6 D,E,F, | G,3 x6 | x9 | x9 | x6 | x3 | x9 | x9 | x9 | D,6 (D,E,)F, | %14
 G,3 x6 | x9 | x9 | x6 |] %18

